svgs/duotone/circle-8.svg

<svg xmlns="http://www.w3.org/2000/svg" viewBox="0 0 512 512"><!-- Font Awesome Pro 6.0.0-alpha2 by @fontawesome - https://fontawesome.com License - https://fontawesome.com/license (Commercial License) --><defs><style>.fa-secondary{opacity:.4}</style></defs><path d="M272 272H240C222.344 272 208 286.344 208 304S222.344 336 240 336H272C289.656 336 304 321.656 304 304S289.656 272 272 272ZM248 224H264C277.219 224 288 213.219 288 200S277.219 176 264 176H248C234.781 176 224 186.781 224 200S234.781 224 248 224ZM256 16C123.451 16 16 123.451 16 256S123.451 496 256 496S496 388.549 496 256S388.549 16 256 16ZM272 384H240C195.875 384 160 348.125 160 304C160 278.938 171.811 256.812 189.896 242.135C181.254 230.258 176 215.773 176 200C176 160.312 208.312 128 248 128H264C303.688 128 336 160.312 336 200C336 215.773 330.746 230.258 322.104 242.135C340.189 256.812 352 278.938 352 304C352 348.125 316.125 384 272 384Z" class="fa-secondary"/><path d="M322.104 242.135C330.746 230.258 336 215.773 336 200C336 160.312 303.688 128 264 128H248C208.312 128 176 160.312 176 200C176 215.773 181.254 230.258 189.896 242.135C171.811 256.812 160 278.938 160 304C160 348.125 195.875 384 240 384H272C316.125 384 352 348.125 352 304C352 278.938 340.189 256.812 322.104 242.135ZM248 176H264C277.219 176 288 186.781 288 200S277.219 224 264 224H248C234.781 224 224 213.219 224 200S234.781 176 248 176ZM272 336H240C222.344 336 208 321.656 208 304S222.344 272 240 272H272C289.656 272 304 286.344 304 304S289.656 336 272 336Z" class="fa-primary"/></svg>

<svg xmlns="http://www.w3.org/2000/svg" viewBox="0 0 512 512"><!--! Font Awesome Pro 6.3.0 by @fontawesome - https://fontawesome.com License - https://fontawesome.com/license (Commercial License) Copyright 2023 Fonticons, Inc. --><defs><style>.fa-secondary{opacity:.4}</style></defs><path class="fa-primary" d="M322.1 242.1C330.7 230.3 336 215.8 336 200C336 160.3 303.7 128 264 128h-16C208.3 128 176 160.3 176 200c0 15.77 5.254 30.26 13.9 42.13C171.8 256.8 160 278.9 160 304C160 348.1 195.9 384 240 384h32c44.13 0 80-35.88 80-80C352 278.9 340.2 256.8 322.1 242.1zM248 176h16C277.2 176 288 186.8 288 200S277.2 224 264 224h-16C234.8 224 224 213.2 224 200S234.8 176 248 176zM272 336h-32c-17.66 0-32-14.34-32-32s14.34-32 32-32h32c17.66 0 32 14.34 32 32S289.7 336 272 336z"/><path class="fa-secondary" d="M256 0C114.6 0 0 114.6 0 256s114.6 256 256 256s256-114.6 256-256S397.4 0 256 0zM272 384h-32C195.9 384 160 348.1 160 304c0-25.06 11.81-47.19 29.9-61.87C181.3 230.3 176 215.8 176 200C176 160.3 208.3 128 248 128h16c39.69 0 72 32.31 72 72c0 15.77-5.254 30.26-13.9 42.13C340.2 256.8 352 278.9 352 304C352 348.1 316.1 384 272 384zM248 224h16C277.2 224 288 213.2 288 200S277.2 176 264 176h-16C234.8 176 224 186.8 224 200S234.8 224 248 224zM272 272h-32c-17.66 0-32 14.34-32 32s14.34 32 32 32h32c17.66 0 32-14.34 32-32S289.7 272 272 272z"/></svg>
